packages/foundations/assets/icons/functional/images/business & payment/cash_12.svg

<svg width="12" height="12" viewBox="0 0 12 12" fill="none" xmlns="http://www.w3.org/2000/svg">
<g clip-path="url(#clip0_231_116)">
<path fill-rule="evenodd" clip-rule="evenodd" d="M7.52574 6.0001C8.56574 6.0101 9.57274 6.3901 10.3357 7.0901L10.6267 7.3761C10.734 7.48415 10.7962 7.62893 10.8006 7.78111C10.8051 7.93329 10.7516 8.08148 10.6509 8.19566C10.5502 8.30984 10.4099 8.38147 10.2583 8.39603C10.1068 8.4106 9.95535 8.36701 9.83474 8.2741L9.61974 8.0641C9.09974 7.5461 8.39974 7.2161 7.68274 7.1921C6.96474 7.1671 6.80474 7.1941 6.59874 7.1921C6.50001 7.18815 6.40289 7.21801 6.32343 7.27674C6.24397 7.33547 6.18693 7.41956 6.16174 7.5151C6.14674 7.5761 6.18474 7.6421 6.26174 7.6551C6.31174 7.6641 6.84474 7.7131 7.85874 7.8031C7.93721 7.81038 8.01348 7.83305 8.08318 7.8698C8.15289 7.90656 8.21467 7.95669 8.26501 8.01733C8.31534 8.07797 8.35323 8.14793 8.37652 8.22321C8.39981 8.2985 8.40804 8.37764 8.40074 8.4561C8.37174 8.7621 8.12774 9.0181 7.81774 9.0001C7.50774 8.9831 6.44774 8.8811 6.15074 8.8501C5.85274 8.8191 5.59174 8.7251 5.27874 8.6261C4.62105 8.41977 3.96305 8.21444 3.30474 8.0101C3.14699 7.96141 2.97826 7.9611 2.82034 8.00923C2.66241 8.05736 2.52253 8.15171 2.41874 8.2801C2.38474 8.3221 2.38574 8.4041 2.48674 8.4431C2.55274 8.4681 3.32074 8.7631 4.79074 9.3241C5.20849 9.48366 5.64903 9.57549 6.09574 9.5961L10.2027 9.6001C10.3619 9.6001 10.5145 9.66331 10.627 9.77584C10.7395 9.88836 10.8027 10.041 10.8027 10.2001C10.8027 10.5081 10.5467 10.8001 10.2027 10.8001H6.28774C5.70274 10.8001 5.03274 10.6941 4.56874 10.5201C3.72294 10.2003 2.87761 9.87933 2.03274 9.5571C1.84105 9.48376 1.66944 9.36608 1.53197 9.21367C1.39449 9.06127 1.29506 8.87849 1.2418 8.68027C1.18854 8.48206 1.18297 8.27405 1.22554 8.07327C1.26811 7.87249 1.35762 7.68464 1.48674 7.5251C1.72812 7.22691 2.04921 7.00339 2.41265 6.88053C2.77609 6.75768 3.16694 6.74053 3.53974 6.8311L4.98574 7.2741C5.17574 6.5261 5.77274 6.0381 6.49174 6.0001H7.52674H7.52574ZM3.97874 4.6611C4.14974 4.6611 4.60874 4.5571 4.64874 4.5481C4.77874 4.5211 4.93874 4.6071 4.99274 4.7481C5.09774 5.0201 4.85774 5.1611 4.78574 5.2011C4.71474 5.2411 4.51574 5.3101 4.35174 5.3461C4.18674 5.3821 4.02174 5.4001 3.85374 5.4001C3.49374 5.4001 3.19974 5.3491 2.97074 5.2471C2.74754 5.1504 2.56038 4.98599 2.43574 4.7771C2.30874 4.5671 2.22074 4.2941 2.17174 3.9571H1.79674V3.4791H2.15474V3.1041H1.79674V2.6271H2.17174C2.23674 2.2821 2.33474 2.0071 2.46774 1.8001C2.59974 1.5931 2.78174 1.4421 3.01274 1.3451C3.24374 1.2481 3.54174 1.2001 3.90574 1.2001C4.17855 1.19662 4.45021 1.23611 4.71074 1.3171C4.87074 1.3711 5.03074 1.5371 4.97474 1.7511C4.89874 2.0061 4.64674 2.0411 4.47374 1.9961C4.30874 1.95148 4.13867 1.92829 3.96774 1.9271C3.70974 1.9271 3.52474 1.9811 3.41074 2.0891C3.29674 2.1971 3.21774 2.3761 3.17174 2.6271H4.22374V3.1041H3.16074V3.4791H4.22374V3.9561H3.17174C3.20574 4.2221 3.28174 4.4061 3.39974 4.5081C3.51674 4.6101 3.70874 4.6611 3.97874 4.6611Z" fill="#1A1C1F"/>
</g>
<defs>
<clipPath id="clip0_231_116">
<rect width="12" height="12" fill="white"/>
</clipPath>
</defs>
</svg>

<svg xmlns="http://www.w3.org/2000/svg" width="12" height="12" fill="none"><g clip-path="url(#a)"><path fill="#1A1C1F" fill-rule="evenodd" d="M7.526 6c1.04.01 2.047.39 2.81 1.09l.29.286a.6.6 0 0 1-.791.898l-.215-.21c-.52-.518-1.22-.848-1.937-.872s-.878.002-1.084 0a.434.434 0 0 0-.437.323c-.015.061.023.127.1.14q.075.014 1.597.148a.6.6 0 0 1 .542.653c-.03.306-.273.562-.583.544-.31-.017-1.37-.119-1.667-.15-.298-.03-.56-.125-.872-.224q-.987-.31-1.974-.616a.83.83 0 0 0-.886.27c-.034.042-.033.124.068.163q.099.038 2.304.881a4.2 4.2 0 0 0 1.305.272l4.107.004a.6.6 0 0 1 .6.6c0 .308-.256.6-.6.6H6.288c-.585 0-1.255-.106-1.72-.28q-1.267-.48-2.535-.963a1.3 1.3 0 0 1-.546-2.032 2.03 2.03 0 0 1 2.053-.694l1.446.443c.19-.748.787-1.236 1.506-1.274zM3.979 4.661c.17 0 .63-.104.67-.113.13-.027.29.06.344.2.105.272-.135.413-.207.453s-.27.11-.434.145q-.247.054-.498.054-.54 0-.883-.153a1.16 1.16 0 0 1-.535-.47q-.19-.315-.264-.82h-.375V3.48h.358v-.375h-.358v-.477h.375q.097-.517.296-.827t.545-.455.893-.145a2.6 2.6 0 0 1 .805.117c.16.054.32.22.264.434-.076.255-.328.29-.501.245a2 2 0 0 0-.506-.069q-.386 0-.557.162-.17.162-.24.538h1.053v.477H3.16v.375h1.063v.477H3.172q.051.399.228.552.175.153.579.153" clip-rule="evenodd"/></g><defs><clipPath id="a"><path fill="#fff" d="M0 0h12v12H0z"/></clipPath></defs></svg>
